; G-Code generated by Simplify3D(R) Version 4.0.1
; May 9, 2021 at 1:23:13 PM
; Settings Summary
;   processName,Process1
;   applyToModels,model
;   profileName,Default (modified)
;   profileVersion,2017-03-01 08:00:00
;   baseProfile,
;   printMaterial,PLA
;   printQuality,High
;   printExtruders,
;   extruderName,Primary Extruder
;   extruderToolheadNumber,0
;   extruderDiameter,0.4
;   extruderAutoWidth,0
;   extruderWidth,0.4
;   extrusionMultiplier,0.9
;   extruderUseRetract,1
;   extruderRetractionDistance,1
;   extruderExtraRestartDistance,0
;   extruderRetractionZLift,0
;   extruderRetractionSpeed,1800
;   extruderUseCoasting,1
;   extruderCoastingDistance,0.2
;   extruderUseWipe,0
;   extruderWipeDistance,5
;   primaryExtruder,0
;   layerHeight,0.2
;   topSolidLayers,4
;   bottomSolidLayers,4
;   perimeterOutlines,1
;   printPerimetersInsideOut,1
;   startPointOption,2
;   startPointOriginX,0
;   startPointOriginY,0
;   sequentialIslands,0
;   spiralVaseMode,1
;   firstLayerHeightPercentage,90
;   firstLayerWidthPercentage,100
;   firstLayerUnderspeed,0.5
;   useRaft,1
;   raftExtruder,0
;   raftTopLayers,3
;   raftBaseLayers,2
;   raftOffset,3
;   raftSeparationDistance,0.14
;   raftTopInfill,100
;   aboveRaftSpeedMultiplier,0.3
;   useSkirt,1
;   skirtExtruder,0
;   skirtLayers,2
;   skirtOutlines,2
;   skirtOffset,4
;   usePrimePillar,0
;   primePillarExtruder,999
;   primePillarWidth,12
;   primePillarLocation,7
;   primePillarSpeedMultiplier,1
;   useOozeShield,0
;   oozeShieldExtruder,999
;   oozeShieldOffset,2
;   oozeShieldOutlines,1
;   oozeShieldSidewallShape,1
;   oozeShieldSidewallAngle,30
;   oozeShieldSpeedMultiplier,1
;   infillExtruder,0
;   internalInfillPattern,Rectilinear
;   externalInfillPattern,Rectilinear
;   infillPercentage,0
;   outlineOverlapPercentage,15
;   infillExtrusionWidthPercentage,100
;   minInfillLength,5
;   infillLayerInterval,1
;   internalInfillAngles,45,-45
;   overlapInternalInfillAngles,0
;   externalInfillAngles,45,-45
;   generateSupport,0
;   supportExtruder,0
;   supportInfillPercentage,40
;   supportExtraInflation,0
;   supportBaseLayers,0
;   denseSupportExtruder,0
;   denseSupportLayers,0
;   denseSupportInfillPercentage,70
;   supportLayerInterval,1
;   supportHorizontalPartOffset,0.3
;   supportUpperSeparationLayers,1
;   supportLowerSeparationLayers,1
;   supportType,0
;   supportGridSpacing,4
;   maxOverhangAngle,45
;   supportAngles,0
;   temperatureName,Primary Extruder,Heat Bed
;   temperatureNumber,0,1
;   temperatureSetpointCount,1,1
;   temperatureSetpointLayers,1,1
;   temperatureSetpointTemperatures,190,40
;   temperatureStabilizeAtStartup,1,1
;   temperatureHeatedBed,0,1
;   temperatureRelayBetweenLayers,0,0
;   temperatureRelayBetweenLoops,0,0
;   fanLayers,1,2
;   fanSpeeds,0,100
;   blipFanToFullPower,0
;   adjustSpeedForCooling,1
;   minSpeedLayerTime,15
;   minCoolingSpeedSlowdown,20
;   increaseFanForCooling,0
;   minFanLayerTime,45
;   maxCoolingFanSpeed,100
;   increaseFanForBridging,0
;   bridgingFanSpeed,100
;   use5D,1
;   relativeEdistances,0
;   allowEaxisZeroing,1
;   independentExtruderAxes,0
;   includeM10123,0
;   stickySupport,1
;   applyToolheadOffsets,0
;   gcodeXoffset,0
;   gcodeYoffset,0
;   gcodeZoffset,0
;   overrideMachineDefinition,0
;   machineTypeOverride,0
;   strokeXoverride,200
;   strokeYoverride,200
;   strokeZoverride,200
;   originOffsetXoverride,0
;   originOffsetYoverride,0
;   originOffsetZoverride,0
;   homeXdirOverride,-1
;   homeYdirOverride,-1
;   homeZdirOverride,-1
;   flipXoverride,1
;   flipYoverride,-1
;   flipZoverride,1
;   toolheadOffsets,0,0|0,0|0,0|0,0|0,0|0,0
;   overrideFirmwareConfiguration,0
;   firmwareTypeOverride,RepRap (Marlin/Repetier/Sprinter)
;   GPXconfigOverride,r2
;   baudRateOverride,115200
;   overridePrinterModels,0
;   printerModelsOverride
;   startingGcode,G28 ; home all axes
;   layerChangeGcode,
;   retractionGcode,
;   toolChangeGcode,
;   endingGcode,M104 S0 ; turn off extruder,M140 S0 ; turn off bed,M84 ; disable motors
;   exportFileFormat,gcode
;   celebration,0
;   celebrationSong,Random Song
;   postProcessing,
;   defaultSpeed,3600
;   outlineUnderspeed,0.5
;   solidInfillUnderspeed,0.8
;   supportUnderspeed,0.8
;   rapidXYspeed,4800
;   rapidZspeed,1000
;   minBridgingArea,50
;   bridgingExtraInflation,0
;   bridgingExtrusionMultiplier,1
;   bridgingSpeedMultiplier,1
;   useFixedBridgingAngle,0
;   fixedBridgingAngle,0
;   applyBridgingToPerimeters,0
;   filamentDiameters,1.75|1.75|1.75|1.75|1.75|1.75
;   filamentPricesPerKg,46|46|46|46|46|46
;   filamentDensities,1.25|1.25|1.25|1.25|1.25|1.25
;   useMinPrintHeight,0
;   minPrintHeight,0
;   useMaxPrintHeight,0
;   maxPrintHeight,0
;   useDiaphragm,0
;   diaphragmLayerInterval,20
;   robustSlicing,1
;   mergeAllIntoSolid,0
;   onlyRetractWhenCrossingOutline,1
;   retractBetweenLayers,1
;   useRetractionMinTravel,0
;   retractionMinTravel,3
;   retractWhileWiping,0
;   onlyWipeOutlines,1
;   avoidCrossingOutline,0
;   maxMovementDetourFactor,3
;   toolChangeRetractionDistance,12
;   toolChangeExtraRestartDistance,-0.5
;   toolChangeRetractionSpeed,600
;   externalThinWallType,0
;   internalThinWallType,2
;   thinWallAllowedOverlapPercentage,10
;   singleExtrusionMinLength,1
;   singleExtrusionMinPrintingWidthPercentage,50
;   singleExtrusionMaxPrintingWidthPercentage,200
;   singleExtrusionEndpointExtension,0.2
;   horizontalSizeCompensation,0
G90
M82
M106 S0
M140 S40
M190 S40
M104 S190 T0
M109 S190 T0
G28 ; home all axes
G92 E0
G1 E-1.0000 F1800
G1 Z0.450 F1000
; process Process1
; layer 1, Z = 0.450
T0
; tool H0.500 W0.400
; skirt
G1 X157.991 Y135.261 F4800
G1 E0.0000 F540
G92 E0
G1 X162.261 Y130.991 E0.4518 F1800
G1 X162.481 Y130.900 E0.4697
G1 X187.519 Y130.900 E2.3434
G1 X187.739 Y130.991 E2.3613
G1 X192.009 Y135.261 E2.8131
G1 X192.100 Y135.481 E2.8310
G1 X192.100 Y214.519 E8.7458
G1 X192.009 Y214.739 E8.7636
G1 X187.739 Y219.009 E9.2155
G1 X187.519 Y219.100 E9.2333
G1 X162.481 Y219.100 E11.1070
G1 X162.261 Y219.009 E11.1249
G1 X157.991 Y214.739 E11.5767
G1 X157.900 Y214.519 E11.5946
G1 X157.900 Y135.481 E17.5094
G1 X157.915 Y135.445 E17.5123
G1 X157.991 Y135.261 F1800
G92 E0
G1 E-1.0000 F1800
G1 X158.330 Y135.487 F4800
G1 E0.0000 F1800
G92 E0
G1 X162.487 Y131.330 E0.4399 F1800
G1 X162.561 Y131.300 E0.4459
G1 X187.439 Y131.300 E2.3077
G1 X187.513 Y131.330 E2.3136
G1 X191.670 Y135.487 E2.7535
G1 X191.700 Y135.561 E2.7595
G1 X191.700 Y214.439 E8.6624
G1 X191.670 Y214.513 E8.6684
G1 X187.513 Y218.670 E9.1083
G1 X187.439 Y218.700 E9.1142
G1 X162.561 Y218.700 E10.9760
G1 X162.487 Y218.670 E10.9820
G1 X158.330 Y214.513 E11.4219
G1 X158.300 Y214.439 E11.4279
G1 X158.300 Y135.681 E17.3217
G1 X158.300 Y135.561 F1800
G1 X158.330 Y135.487 F1800
G92 E0
G1 E-1.0000 F1800
; tool H0.500 W0.800
; raft
G1 X162.900 Y137.423 F4800
G1 E0.0000 F1800
G92 E0
G1 X164.423 Y135.900 E0.3224 F450
G1 X185.577 Y135.900 E3.4885
G1 X187.100 Y137.423 E3.8109
G1 X187.100 Y212.577 E15.0592
G1 X185.577 Y214.100 E15.3816
G1 X164.423 Y214.100 E18.5477
G1 X162.900 Y212.577 E18.8701
G1 X162.900 Y137.623 E30.0885
G1 X162.900 Y137.423 F450
G92 E0
G1 E-1.0000 F1800
G1 X163.700 Y138.429 F4800
G1 E0.0000 F1800
G92 E0
G1 X186.300 Y138.429 E3.3826 F450
G1 X186.300 Y140.714 E3.7247
G1 X163.700 Y140.714 E7.1072
G1 X163.700 Y143.000 E7.4493
G1 X186.300 Y143.000 E10.8319
G1 X186.300 Y145.286 E11.1740
G1 X163.700 Y145.286 E14.5565
G1 X163.700 Y147.571 E14.8986
G1 X186.300 Y147.571 E18.2812
G1 X186.300 Y149.857 E18.6233
G1 X163.700 Y149.857 E22.0059
G1 X163.700 Y152.143 E22.3480
G1 X186.300 Y152.143 E25.7305
G1 X186.300 Y154.429 E26.0726
G1 X163.700 Y154.429 E29.4552
G1 X163.700 Y156.714 E29.7973
G1 X186.300 Y156.714 E33.1798
G1 X186.300 Y159.000 E33.5219
G1 X163.700 Y159.000 E36.9045
G1 X163.700 Y161.286 E37.2466
G1 X186.300 Y161.286 E40.6292
G1 X186.300 Y163.571 E40.9713
G1 X163.700 Y163.571 E44.3538
G1 X163.700 Y165.857 E44.6959
G1 X186.300 Y165.857 E48.0785
G1 X186.300 Y168.143 E48.4206
G1 X163.700 Y168.143 E51.8031
G1 X163.700 Y170.429 E52.1452
G1 X186.300 Y170.429 E55.5278
G1 X186.300 Y172.714 E55.8699
G1 X163.700 Y172.714 E59.2525
G1 X163.700 Y175.000 E59.5946
G1 X186.300 Y175.000 E62.9771
G1 X186.300 Y177.286 E63.3192
G1 X163.700 Y177.286 E66.7018
G1 X163.700 Y179.571 E67.0439
G1 X186.300 Y179.571 E70.4264
G1 X186.300 Y181.857 E70.7685
G1 X163.700 Y181.857 E74.1511
G1 X163.700 Y184.143 E74.4932
G1 X186.300 Y184.143 E77.8758
G1 X186.300 Y186.429 E78.2179
G1 X163.700 Y186.429 E81.6004
G1 X163.700 Y188.714 E81.9425
G1 X186.300 Y188.714 E85.3251
G1 X186.300 Y191.000 E85.6672
G1 X163.700 Y191.000 E89.0497
G1 X163.700 Y193.286 E89.3918
G1 X186.300 Y193.286 E92.7744
G1 X186.300 Y195.571 E93.1165
G1 X163.700 Y195.571 E96.4991
G1 X163.700 Y197.857 E96.8412
G1 X186.300 Y197.857 E100.2237
G1 X186.300 Y200.143 E100.5658
G1 X163.700 Y200.143 E103.9484
G1 X163.700 Y202.429 E104.2905
G1 X186.300 Y202.429 E107.6730
G1 X186.300 Y204.714 E108.0151
G1 X163.700 Y204.714 E111.3977
G1 X163.700 Y207.000 E111.7398
G1 X186.300 Y207.000 E115.1224
G1 X186.300 Y209.286 E115.4645
G1 X163.700 Y209.286 E118.8470
G1 X163.700 Y211.571 E119.1891
G1 X186.100 Y211.571 E122.5417
G1 X186.300 Y211.571 F450
G92 E0
G1 E-1.0000 F1800
; layer 2, Z = 0.950
M106 S255
; tool H0.500 W0.400
; skirt
G1 X192.100 Y214.519 F4800
G1 Z0.950 F1000
G1 E0.0000 F1800
G92 E0
G1 X192.009 Y214.739 E0.0179 F3600
G1 X187.739 Y219.009 E0.4697
G1 X187.519 Y219.100 E0.4876
G1 X162.481 Y219.100 E2.3613
G1 X162.261 Y219.009 E2.3791
G1 X157.991 Y214.739 E2.8310
G1 X157.900 Y214.519 E2.8488
G1 X157.900 Y135.481 E8.7636
G1 X157.991 Y135.261 E8.7815
G1 X162.261 Y130.991 E9.2333
G1 X162.481 Y130.900 E9.2512
G1 X187.519 Y130.900 E11.1249
G1 X187.739 Y130.991 E11.1427
G1 X192.009 Y135.261 E11.5946
G1 X192.100 Y135.481 E11.6124
G1 X192.100 Y214.319 E17.5123
G1 X192.100 Y214.519 F3600
G92 E0
G1 E-1.0000 F1800
G1 X191.700 Y214.439 F4800
G1 E0.0000 F1800
G92 E0
G1 X191.670 Y214.513 E0.0060 F3600
G1 X187.513 Y218.670 E0.4459
G1 X187.439 Y218.700 E0.4518
G1 X162.561 Y218.700 E2.3136
G1 X162.487 Y218.670 E2.3196
G1 X158.330 Y214.513 E2.7595
G1 X158.300 Y214.439 E2.7655
G1 X158.300 Y135.561 E8.6684
G1 X158.330 Y135.487 E8.6743
G1 X162.487 Y131.330 E9.1142
G1 X162.561 Y131.300 E9.1202
G1 X187.439 Y131.300 E10.9820
G1 X187.513 Y131.330 E10.9879
G1 X191.670 Y135.487 E11.4279
G1 X191.700 Y135.561 E11.4338
G1 X191.700 Y214.239 E17.3217
G1 X191.700 Y214.439 F3600
G92 E0
G1 E-1.0000 F1800
; tool H0.500 W0.800
; raft
G1 X187.100 Y212.577 F4800
G1 E0.0000 F1800
G92 E0
G1 X185.577 Y214.100 E0.3224 F900
G1 X164.423 Y214.100 E3.4885
G1 X162.900 Y212.577 E3.8109
G1 X162.900 Y137.423 E15.0592
G1 X164.423 Y135.900 E15.3816
G1 X185.577 Y135.900 E18.5477
G1 X187.100 Y137.423 E18.8701
G1 X187.100 Y212.377 E30.0885
G1 X187.100 Y212.577 F900
G92 E0
G1 E-1.0000 F1800
G1 X186.300 Y211.571 F4800
G1 E0.0000 F1800
G92 E0
G1 X163.700 Y211.571 E3.3826 F900
G1 X163.700 Y209.286 E3.7247
G1 X186.300 Y209.286 E7.1072
G1 X186.300 Y207.000 E7.4493
G1 X163.700 Y207.000 E10.8319
G1 X163.700 Y204.714 E11.1740
G1 X186.300 Y204.714 E14.5565
G1 X186.300 Y202.429 E14.8986
G1 X163.700 Y202.429 E18.2812
G1 X163.700 Y200.143 E18.6233
G1 X186.300 Y200.143 E22.0059
G1 X186.300 Y197.857 E22.3480
G1 X163.700 Y197.857 E25.7305
G1 X163.700 Y195.571 E26.0726
G1 X186.300 Y195.571 E29.4552
G1 X186.300 Y193.286 E29.7973
G1 X163.700 Y193.286 E33.1798
G1 X163.700 Y191.000 E33.5219
G1 X186.300 Y191.000 E36.9045
G1 X186.300 Y188.714 E37.2466
G1 X163.700 Y188.714 E40.6292
G1 X163.700 Y186.429 E40.9713
G1 X186.300 Y186.429 E44.3538
G1 X186.300 Y184.143 E44.6959
G1 X163.700 Y184.143 E48.0785
G1 X163.700 Y181.857 E48.4206
G1 X186.300 Y181.857 E51.8031
G1 X186.300 Y179.571 E52.1452
G1 X163.700 Y179.571 E55.5278
G1 X163.700 Y177.286 E55.8699
G1 X186.300 Y177.286 E59.2525
G1 X186.300 Y175.000 E59.5946
G1 X163.700 Y175.000 E62.9771
G1 X163.700 Y172.714 E63.3192
G1 X186.300 Y172.714 E66.7018
G1 X186.300 Y170.429 E67.0439
G1 X163.700 Y170.429 E70.4264
G1 X163.700 Y168.143 E70.7685
G1 X186.300 Y168.143 E74.1511
G1 X186.300 Y165.857 E74.4932
G1 X163.700 Y165.857 E77.8758
G1 X163.700 Y163.571 E78.2179
G1 X186.300 Y163.571 E81.6004
G1 X186.300 Y161.286 E81.9425
G1 X163.700 Y161.286 E85.3251
G1 X163.700 Y159.000 E85.6672
G1 X186.300 Y159.000 E89.0497
G1 X186.300 Y156.714 E89.3918
G1 X163.700 Y156.714 E92.7744
G1 X163.700 Y154.429 E93.1165
G1 X186.300 Y154.429 E96.4991
G1 X186.300 Y152.143 E96.8412
G1 X163.700 Y152.143 E100.2237
G1 X163.700 Y149.857 E100.5658
G1 X186.300 Y149.857 E103.9484
G1 X186.300 Y147.571 E104.2905
G1 X163.700 Y147.571 E107.6730
G1 X163.700 Y145.286 E108.0151
G1 X186.300 Y145.286 E111.3977
G1 X186.300 Y143.000 E111.7398
G1 X163.700 Y143.000 E115.1224
G1 X163.700 Y140.714 E115.4645
G1 X186.300 Y140.714 E118.8470
G1 X186.300 Y138.429 E119.1891
G1 X163.900 Y138.429 E122.5417
G1 X163.700 Y138.429 F900
G92 E0
G1 E-1.0000 F1800
; layer 3, Z = 1.172
; tool H0.222 W0.400
G1 X162.700 Y137.520 F4800
G1 Z1.172 F1000
G1 E0.0000 F1800
G92 E0
G1 X164.520 Y135.700 E0.0856 F2700
G1 X165.085 Y135.700 E0.1044
G1 X162.700 Y138.085 E0.2166
G1 X162.700 Y138.651 E0.2354
G1 X165.651 Y135.700 E0.3742
G1 X166.217 Y135.700 E0.3930
G1 X162.700 Y139.217 E0.5585
G1 X162.700 Y139.782 E0.5773
G1 X166.782 Y135.700 E0.7693
G1 X167.348 Y135.700 E0.7881
G1 X162.700 Y140.348 E1.0068
G1 X162.700 Y140.914 E1.0256
G1 X167.914 Y135.700 E1.2708
G1 X168.480 Y135.700 E1.2896
G1 X162.700 Y141.480 E1.5615
G1 X162.700 Y142.045 E1.5803
G1 X169.045 Y135.700 E1.8788
G1 X169.611 Y135.700 E1.8976
G1 X162.700 Y142.611 E2.2226
G1 X162.700 Y143.177 E2.2414
G1 X170.177 Y135.700 E2.5931
G1 X170.742 Y135.700 E2.6119
G1 X162.700 Y143.742 E2.9902
G1 X162.700 Y144.308 E3.0090
G1 X171.308 Y135.700 E3.4139
G1 X171.874 Y135.700 E3.4327
G1 X162.700 Y144.874 E3.8642
G1 X162.700 Y145.439 E3.8831
G1 X172.439 Y135.700 E4.3412
G1 X173.005 Y135.700 E4.3600
G1 X162.700 Y146.005 E4.8447
G1 X162.700 Y146.571 E4.8635
G1 X173.571 Y135.700 E5.3748
G1 X174.136 Y135.700 E5.3936
G1 X162.700 Y147.136 E5.9316
G1 X162.700 Y147.702 E5.9504
G1 X174.702 Y135.700 E6.5149
G1 X175.268 Y135.700 E6.5337
G1 X162.700 Y148.268 E7.1249
G1 X162.700 Y148.833 E7.1437
G1 X175.833 Y135.700 E7.7615
G1 X176.399 Y135.700 E7.7803
G1 X162.700 Y149.399 E8.4246
G1 X162.700 Y149.965 E8.4435
G1 X176.965 Y135.700 E9.1144
G1 X177.530 Y135.700 E9.1332
G1 X162.700 Y150.530 E9.8308
G1 X162.700 Y151.096 E9.8496
G1 X178.096 Y135.700 E10.5738
G1 X178.662 Y135.700 E10.5926
G1 X162.700 Y151.662 E11.3434
G1 X162.700 Y152.228 E11.3623
G1 X179.228 Y135.700 E12.1397
G1 X179.793 Y135.700 E12.1585
G1 X162.700 Y152.793 E12.9625
G1 X162.700 Y153.359 E12.9813
G1 X180.359 Y135.700 E13.8119
G1 X180.925 Y135.700 E13.8307
G1 X162.700 Y153.925 E14.6880
G1 X162.700 Y154.490 E14.7068
G1 X181.490 Y135.700 E15.5906
G1 X182.056 Y135.700 E15.6094
G1 X162.700 Y155.056 E16.5199
G1 X162.700 Y155.622 E16.5387
G1 X182.622 Y135.700 E17.4757
G1 X183.187 Y135.700 E17.4946
G1 X162.700 Y156.187 E18.4582
G1 X162.700 Y156.753 E18.4770
G1 X183.753 Y135.700 E19.4673
G1 X184.319 Y135.700 E19.4861
G1 X162.700 Y157.319 E20.5030
G1 X162.700 Y157.884 E20.5218
G1 X184.884 Y135.700 E21.5653
G1 X185.450 Y135.700 E21.5841
G1 X162.700 Y158.450 E22.6542
G1 X162.700 Y159.016 E22.6730
G1 X185.838 Y135.878 E23.7613
G1 X186.121 Y136.161 E23.7747
G1 X162.700 Y159.581 E24.8763
G1 X162.700 Y160.147 E24.8951
G1 X186.403 Y136.444 E26.0100
G1 X186.686 Y136.727 E26.0233
G1 X162.700 Y160.713 E27.1516
G1 X162.700 Y161.278 E27.1704
G1 X186.969 Y137.009 E28.3119
G1 X187.252 Y137.292 E28.3253
G1 X162.700 Y161.844 E29.4801
G1 X162.700 Y162.410 E29.4989
G1 X187.300 Y137.810 E30.6560
G1 X187.300 Y138.376 E30.6748
G1 X162.700 Y162.976 E31.8319
G1 X162.700 Y163.541 E31.8508
G1 X187.300 Y138.941 E33.0079
G1 X187.300 Y139.507 E33.0267
G1 X162.700 Y164.107 E34.1838
G1 X162.700 Y164.673 E34.2026
G1 X187.300 Y140.073 E35.3597
G1 X187.300 Y140.638 E35.3785
G1 X162.700 Y165.238 E36.5356
G1 X162.700 Y165.804 E36.5545
